X:177
T:The Easy Club
C:Jim Sutherland
R:reel
M:4/4
L:1/8
K:A
|: AEAc BFBd | ceef ecBA | fefg afec | dfed cdBc |
AEAc BFBd | ceef ecBA | fefg afed | cdBc A3z ::
f2ad zafa | e2ac zaea | f2ad zefg | afed cdBc |
AEAc BFBd | ceef ecBA | fefg afed | cdBc A3z :|
